X:1
T:We Shall See the King Some Day
T:Lewis Edgar Jones, 1906
T:We Shall See the King Some Day
T:Public Domain
T:Public Domain
C:Lewis Edgar Jones, 1906
Z:Public Domain
%%score ( 1 2 ) ( 3 4 )
L:1/8
M:4/4
K:Db
V:1 treble 
V:2 treble 
V:3 bass 
V:4 bass 
V:1
 [FA]>[GB] [FA]>[EG] [DF]2 [FA]2 | [FA]>[EG] [EG]>[=DF] [EG]4 | [Gc]>[G=B] [Gc]>[G_B] A2 [GB]2 | %3
w: 1.~Though the way we jour- ney|may be oft- en drear,|We shall see the King some|
w: 2.~Af- ter pain and an- guish,|af- ter toil and care,|We shall see the King some|
w: 3.~Af- ter foes are con- quered,|af- ter bat- tles won,|We shall see the King some|
w: 4.~There with all the loved ones|who have gone be- fore,|We shall see the King some|
 (F2 DE F4) | [FA]>[GB] [FA]>[EG] [DF]2 [FA]2 | [Dd]>[De] [Dd]>[Ac] [GB]4 | %6
w: On * * *|bless- èd morn- ing clouds will|dis- ap- pear; We shall|
w: Through * * *|end- less ag- es joy and|bless- ing share, We shall|
w: Af- * * *|strife is o- ver, a- fter|set of sun, We shall|
w: Sor- * * *|past for- ev- er, on that|peace- ful shore, We shall|
 [Gc]>[G=B] [Gc]>[G_B] A2 [Ge]2 | [Fd]6 z2 ||"^Refrain" [DF]>[EG] [FA]>[GB] [FA]2 [Fd]2 | %9
w: see the King some day. *|||
w: see the King some day. *|||
w: see the King some day. *|||
w: see the King some day. *|||
 (G2 G2 G4) | [CE]>[DF] [EG]>[FA] [GB]2 [Gc]2 | (F2 DE F4) | [Fd]>[Ge] [Fd]>[GB] [FA]2 [DF]2 | %13
w: ||||
w: ||||
w: ||||
w: ||||
 [DB]>[DB] [DB]>[Dc] [Gd]4 | [Gc]>[G=B] [Gc]>[G_B] [GA]2 [Ge]2 | [Fd]6 z2 |] %16
w: |||
w: |||
w: |||
w: |||
V:2
 x8 | x8 | x4 G2 x2 | A6 x2 | x8 | x8 | x4 G2 x2 | x8 || x8 | c6 x2 | x8 | B6 x2 | x8 | x8 | x8 | %15
w: ||day;|that||||||||||||
w: ||day;|the||||||||||||
w: ||day;|ter||||||||||||
w: ||day;|row||||||||||||
 x8 |] %16
w: |
w: |
w: |
w: |
V:3
 [D,D]>[D,D] [D,D]>[D,A,] [D,A,]2 [D,D]2 | [A,,D]>[A,,A,] [A,,A,]>[A,,A,] [A,,C]4 | %2
w: ~ ~ ~ ~ ~ ~|~ ~ ~ ~ ~|
 A,>A, [A,E]>[A,D] [A,C]2 [A,,C]2 | ([D,D]2 F,A, [D,D]4) | %4
w: ~ ~ ~ ~ ~ ~|~ * * *|
 [D,D]>[D,D] [D,D]>[D,A,] [D,A,]2 [D,D]2 | [F,A,]>[F,A,] [F,A,]>[F,D] [G,D]4 | %6
w: ~ ~ ~ ~ ~ ~|~ ~ ~ ~ ~|
 A,>A, [A,E]>[A,D] [A,C]2 [A,,A,]2 | [D,A,]6 z2 || [D,A,]>[D,A,] [D,D]>[D,D] [D,D]2 [D,A,]2 | %9
w: ~ ~ ~ ~ ~ ~|see|the King some day, When the|
 ([E,A,]2 [E,A,]2 [A,E]4) | [A,,A,]>[A,,A,] [A,,A,]>[A,,A,] [A,,C]2 [A,,E]2 | %11
w: clouds * *|have rolled a- way; Ga- thered|
 ([D,D]2 F,A, [D,D]4) | [D,A,]>[D,A,] [D,A,]>[D,C] [D,D]2 [D,A,]2 | G,>G, G,>[G,A,] [G,B,]4 | %14
w: ’round * * *|throne, When He shall call His|own, We shall see the|
 A,>A, [A,E]>[A,D] [A,C]2 [A,,A,]2 | [D,A,]6 z2 |] %16
w: ||
V:4
 x8 | x8 | x8 | x2 D,2 x4 | x8 | x8 | A,>A, x6 | x8 || x8 | x8 | x8 | x2 D,2 x4 | x8 | %13
w: |||~|||We shall|||||the||
 G,>G, G,3/2 x9/2 | A,>A, x6 | x8 |] %16
w: King some day.|||

